X:0645
M:2/4
L:1/8
Q:1/4=88
K:G
gage|dBBg|dBBG|AEE2|gage|dBgb|agab       |g2g2:|
bgdg|bgdg|gdBG|AEE2|DGGB|AGg2|dB d/c/B/A/|G2G2:|

